src/assets/selectIconsSpells/speciale_7.svg

<svg xmlns="http://www.w3.org/2000/svg" viewBox="0 0 512 512"><path d="M0 0h512v512H0z"/><path fill="#fff" d="M470.7 20L368.2 49.81l41.5-28.09c-26.2 5.92-59.3 17.5-100.9 36.19l-67.9 70.79L265 79.25c-23.3 12.96-48 29.95-71.8 49.85l-15.8 64.3-3.4-47.6c-23.5 21.6-45.6 45.6-63.9 70.9-19.23 26.5-34.26 54.5-41.79 82.4l-28.12-18.8c2.52 23.7 10.31 44.3 23.09 63.2l-33.62-10.3c7.64 23.5 20.13 38.7 41.25 51-11.83 33.3-17.38 68.1-23.34 102.8l18.4 3.1C87.31 277.4 237.9 141.8 374 81.72l6.9 17.38c-121.7 54.5-216.3 146.5-265.8 279.1 18.1.1 35.8-2.1 52.2-6.3l4.9-60.9 13.1 55.5c10.9-4 20.9-8.8 29.8-14.4l-20.7-43.5 32.8 34.8c8-6.4 14.6-13.6 19.6-21.5 30.4-47.5 62.2-94.7 124.8-134.2l-45.7-16.2 70.1 2.1c11.4-5.8 23.4-12.9 32.5-19.6l-49.7-4 74.7-17.6c5.8-5.8 11.2-11.9 16.1-18 17.3-21.94 29-44.78 26.2-65.55-1.3-10.39-7.5-20.16-17.6-25.63-2.5-1.3-5.2-2.45-7.5-3.22z"/></svg>

<?xml version="1.0" encoding="UTF-8" standalone="no"?>
<!DOCTYPE svg PUBLIC "-//W3C//DTD SVG 1.1//EN" "http://www.w3.org/Graphics/SVG/1.1/DTD/svg11.dtd">
<svg width="100%" height="100%" viewBox="0 0 512 512" version="1.1" xmlns="http://www.w3.org/2000/svg" xmlns:xlink="http://www.w3.org/1999/xlink" xml:space="preserve" xmlns:serif="http://www.serif.com/" style="fill-rule:evenodd;clip-rule:evenodd;stroke-linejoin:round;stroke-miterlimit:2;">
    <rect x="0" y="0" width="512" height="512" style="fill-rule:nonzero;"/>
    <path d="M470.7,20L368.2,49.81L409.7,21.72C383.5,27.64 350.4,39.22 308.8,57.91L240.9,128.7L265,79.25C241.7,92.21 217,109.2 193.2,129.1L177.4,193.4L174,145.8C150.5,167.4 128.4,191.4 110.1,216.7C90.87,243.2 75.84,271.2 68.31,299.1L40.19,280.3C42.71,304 50.5,324.6 63.28,343.5L29.66,333.2C37.3,356.7 49.79,371.9 70.91,384.2C59.08,417.5 53.53,452.3 47.57,487L65.97,490.1C87.31,277.4 237.9,141.8 374,81.72L380.9,99.1C259.2,153.6 164.6,245.6 115.1,378.2C133.2,378.3 150.9,376.1 167.3,371.9L172.2,311L185.3,366.5C196.2,362.5 206.2,357.7 215.1,352.1L194.4,308.6L227.2,343.4C235.2,337 241.8,329.8 246.8,321.9C277.2,274.4 309,227.2 371.6,187.7L325.9,171.5L396,173.6C407.4,167.8 419.4,160.7 428.5,154L378.8,150L453.5,132.4C459.3,126.6 464.7,120.5 469.6,114.4C486.9,92.46 498.6,69.62 495.8,48.85C494.5,38.46 488.3,28.69 478.2,23.22C475.7,21.92 473,20.77 470.7,20Z" style="fill:rgb(117,219,209);fill-rule:nonzero;"/>
</svg>
